X:1
N: The Minister on the Loch
N: 3 x 32S 3C Set (Roy Goldring/24 Graded)
P: Muriel Johnstone's Compliments to Robert MacKay
C: by Muriel Johnstone (A Score & More Tunes)
C: arr. T. Traub 5-8-1997
K: Bb
M: 4/4
L: 1/8
c|"Bb"d2 d>B "Eb"G<E E2|"Cm"e2 g>B "F"A<F F2|"F7"A>c (3fga "Bb".b.f.d.B|"Eb"g>e"C7"c>B "F7"A<F F2|"Bb7"d2 d>B "Eb"G<E E2|"Cm"e2 g>B "F"A<F F2 |
"F7"A>c (3fga "Bb"(3bab "Bb7"fed|"Cm"g>e"F7"c>f "Bb"dDF<D B2 (3BAB|"Eb"G>e"Bb"F>D "Cm"E<C"F"C>D|"Bb"B,>DF<D "Gm"B2 (3BAB|
"Eb"(3gfe "C7"(3dcB "F7"A<FF>A|"Bb"B>df<d "Gm"b2 (3bab|"A7"a>gf>=e "Dm"f<d d2|"Bb7"d2 d>B "E7"G<EE>e|"Cm"g>e"F7"c>a "Bb"b<B B2 |]
